X: 305676
M: 2/4
L: 1/16
K: A
E2 |\
c3B AGAB | c2e2 f2a2 | Te2c2 Te2c2 | B>AB>c B2E2 |\
c3B AGAB | c2e2 f2a2 | e3c BABc | A2c2A2 H|]
K: E


